images/icons/facebook.svg

<svg fill="none" height="24" viewBox="0 0 24 24" width="24" xmlns="http://www.w3.org/2000/svg" xmlns:xlink="http://www.w3.org/1999/xlink"><clipPath id="a"><path d="m0 0h24v24h-24z"/></clipPath><g clip-path="url(#a)"><path d="m23.625 12c0-6.42188-5.2031-11.625-11.625-11.625-6.42188 0-11.625 5.20312-11.625 11.625 0 5.8022 4.25109 10.6116 9.8086 11.4844v-8.1239h-2.95313v-3.3605h2.95313v-2.56125c0-2.91328 1.7344-4.5225 4.3908-4.5225 1.2722 0 2.6025.22688 2.6025.22688v2.85937h-1.4663c-1.4437 0-1.8942.89625-1.8942 1.81547v2.18203h3.2241l-.5157 3.3605h-2.7084v8.1239c5.5575-.8728 9.8086-5.6822 9.8086-11.4844z" fill="#fff"/></g></svg>

<svg width="24" height="24" viewBox="0 0 24 24" fill="none" xmlns="http://www.w3.org/2000/svg">
<g clip-path="url(#clip0_1432_8611)">
<path d="M23.625 12C23.625 5.57812 18.4219 0.375 12 0.375C5.57812 0.375 0.375 5.57812 0.375 12C0.375 17.8022 4.62609 22.6116 10.1836 23.4844V15.3605H7.23047V12H10.1836V9.43875C10.1836 6.52547 11.918 4.91625 14.5744 4.91625C15.8466 4.91625 17.1769 5.14313 17.1769 5.14313V8.0025H15.7106C14.2669 8.0025 13.8164 8.89875 13.8164 9.81797V12H17.0405L16.5248 15.3605H13.8164V23.4844C19.3739 22.6116 23.625 17.8022 23.625 12Z" fill="white"/>
</g>
<defs>
<clipPath id="clip0_1432_8611">
<rect width="24" height="24" fill="white"/>
</clipPath>
</defs>
</svg>
